Breeze Round Light/devices/24/network-modem.svg

<svg xmlns="http://www.w3.org/2000/svg" viewBox="0 0 24 24" width="24" height="24">
  <defs id="defs3051">
    <style type="text/css" id="current-color-scheme">.ColorScheme-Text {color:#eff0f1;}</style>
  </defs>
  <g transform="translate(1,1)">
    <path style="fill:currentColor;fill-opacity:1;stroke:none" d="M 8,4 C 5.2385763,4 3,6.2385763 3,9 H 4 C 4,6.790861 5.790861,5 8,5 c 2.209139,0 4,1.790861 4,4 h 1 C 13,6.2385763 10.761424,4 8,4 Z M 8,6 C 6.3431458,6 5,7.3431458 5,9 H 6 C 6,7.8954305 6.8954305,7 8,7 c 1.1045695,0 2,0.8954305 2,2 h 1 C 11,7.3431458 9.6568542,6 8,6 Z M 8,8 C 7.4477153,8 7,8.4477153 7,9 7,9.5522847 7.4477153,10 8,10 8.5522847,10 9,9.5522847 9,9 9,8.4477153 8.5522847,8 8,8 Z m -5,5 c 0,2 0,1 0,3 0,2 2,2 2,2 h 12 c 0,0 2,0 2,-2 0,-2 0,-1 0,-3 0,-2 -2,-2 -2,-2 H 5 c 0,0 -2,0 -2,2 z m 1,0 c 0,-1 1,-1 1,-1 h 12 c 0,0 1,0 1,1 0,1 0,2 0,3 0,1 -1,1 -1,1 H 5 c 0,0 -1,0 -1,-1 0,-1 0,-2 0,-3 z m 8,2 v 1 h 1 v -1 z m 2,0 v 1 h 1 v -1 z m 2,0 v 1 h 1 v -1 z" id="rect3343" class="ColorScheme-Text"/>
  </g>
</svg>

<svg xmlns="http://www.w3.org/2000/svg" viewBox="0 0 24 24" width="24" height="24">
  <defs id="defs3051">
    <style type="text/css" id="current-color-scheme">
      .ColorScheme-Text {
        color:#232629;
      }
      </style>
  </defs>
  <g transform="translate(1,1)">
    <path style="fill:currentColor;fill-opacity:1;stroke:none" d="M 8 4 A 5 5 0 0 0 3 9 L 4 9 A 4 4 0 0 1 8 5 A 4 4 0 0 1 12 9 L 13 9 A 5 5 0 0 0 8 4 z M 8 6 A 3 3 0 0 0 5 9 L 6 9 A 2 2 0 0 1 8 7 A 2 2 0 0 1 10 9 L 11 9 A 3 3 0 0 0 8 6 z M 8 8 A 1 1 0 0 0 7 9 A 1 1 0 0 0 8 10 A 1 1 0 0 0 9 9 A 1 1 0 0 0 8 8 z M 3 11 L 3 18 L 19 18 L 19 11 L 3 11 z M 4 12 L 18 12 L 18 17 L 4 17 L 4 12 z M 12 15 L 12 16 L 13 16 L 13 15 L 12 15 z M 14 15 L 14 16 L 15 16 L 15 15 L 14 15 z M 16 15 L 16 16 L 17 16 L 17 15 L 16 15 z " id="rect3343" class="ColorScheme-Text"/>
  </g>
</svg>
